img/quality-features-1.svg

<svg width="51" height="32" viewBox="0 0 51 32" fill="none" xmlns="http://www.w3.org/2000/svg">
<path d="M50.4789 27.589L50.3599 23.8541C50.351 23.5425 50.2807 23.2357 50.153 22.9513C50.0253 22.667 49.8427 22.4106 49.6158 22.1969C49.3888 21.9833 49.1219 21.8166 48.8304 21.7062C48.5389 21.5959 48.2285 21.5441 47.9169 21.554L47.41 21.569C46.4554 17.4766 44.3105 13.7584 41.2459 10.8831L41.2139 10.8531C39.3248 9.06803 37.1258 7.64263 34.7249 6.64702L41.274 6.44707C41.6496 7.41544 42.3556 8.21971 43.2672 8.71758C44.1787 9.21544 45.237 9.37479 46.2547 9.16741C47.2724 8.96003 48.184 8.39924 48.8281 7.5844C49.4721 6.76955 49.8073 5.75313 49.774 4.71501C49.7379 3.54741 49.2406 2.44174 48.3909 1.64006C47.9708 1.24188 47.4755 0.931557 46.9339 0.727221C46.3923 0.522884 45.8154 0.428581 45.237 0.449999C44.0709 0.483625 42.966 0.978996 42.165 1.82707C41.7178 2.30388 41.381 2.87336 41.1789 3.49504L29.3879 3.84807L29.3749 3.44805C29.3661 3.13643 29.2959 2.82962 29.1683 2.54521C29.0406 2.2608 28.858 2.00439 28.631 1.7907C28.4041 1.57701 28.1372 1.41026 27.8456 1.29997C27.5541 1.18969 27.2435 1.138 26.9319 1.148L23.1579 1.2531C22.8469 1.26149 22.5407 1.33125 22.2569 1.45854C21.9731 1.58584 21.7173 1.76816 21.5042 1.9948C21.2911 2.22144 21.1251 2.48797 21.0156 2.7791C20.906 3.07024 20.8551 3.38021 20.8659 3.69109L20.879 4.09099L9.08795 4.44499C8.71237 3.47662 8.00634 2.67235 7.09479 2.17449C6.18323 1.67662 5.12486 1.51728 4.10712 1.72466C3.08938 1.93204 2.17783 2.49282 1.53375 3.30767C0.889682 4.12251 0.554684 5.13893 0.587953 6.17705C0.620216 7.2134 1.01744 8.20504 1.70954 8.9771C2.40163 9.74915 3.34411 10.252 4.37079 10.3969C5.39747 10.5418 6.44234 10.3195 7.32111 9.76921C8.19987 9.2189 8.85602 8.37601 9.17389 7.38909L15.723 7.18901C12.6703 8.68362 10.0164 10.8823 7.98017 13.6038C5.94388 16.3253 4.58339 19.4917 4.01093 22.8421L3.38092 22.861C2.75182 22.8811 2.15646 23.15 1.72528 23.6086C1.29411 24.0671 1.0624 24.6779 1.08099 25.3071L1.19989 29.0571C1.20868 29.3687 1.27891 29.6755 1.40656 29.9599C1.53421 30.2443 1.71681 30.5007 1.94379 30.7144C2.17077 30.9281 2.43773 31.0948 2.72931 31.2051C3.02089 31.3154 3.3313 31.3671 3.64288 31.3571L7.39398 31.245C8.023 31.2247 8.61826 30.9557 9.04938 30.4972C9.4805 30.0388 9.71224 29.4281 9.69391 28.799L9.57489 25.048C9.56623 24.7364 9.49607 24.4295 9.36847 24.1451C9.24087 23.8606 9.05836 23.6041 8.83136 23.3904C8.60436 23.1767 8.33736 23.0099 8.04572 22.8997C7.75408 22.7895 7.44351 22.738 7.1319 22.7481H7.02399C7.74748 19.2354 9.4749 16.008 11.9968 13.4579C14.5186 10.9078 17.7264 9.14454 21.2309 8.38201C21.355 8.64917 21.5299 8.88965 21.7459 9.09001C21.973 9.30378 22.2401 9.47056 22.5318 9.58074C22.8236 9.69091 23.1343 9.74241 23.446 9.7321L27.197 9.62004C27.656 9.6055 28.101 9.45787 28.4777 9.19512C28.8545 8.93237 29.1467 8.56584 29.3189 8.14006C32.8684 8.69086 36.1826 10.2577 38.8609 12.6512C41.5392 15.0447 43.4672 18.1626 44.4119 21.6281L44.181 21.6351C43.552 21.6554 42.9567 21.9244 42.5256 22.3829C42.0945 22.8413 41.8626 23.452 41.8809 24.0811L41.9999 27.8311C42.0087 28.1427 42.079 28.4495 42.2066 28.7339C42.3343 29.0183 42.5169 29.2748 42.7438 29.4885C42.9708 29.7021 43.2377 29.8689 43.5292 29.9792C43.8208 30.0895 44.1314 30.141 44.4429 30.131L48.1939 30.0191C48.5037 30.0102 48.8087 29.9401 49.0914 29.813C49.374 29.686 49.6288 29.5044 49.8411 29.2786C50.0534 29.0528 50.219 28.7874 50.3284 28.4975C50.4379 28.2075 50.4891 27.8988 50.4789 27.589ZM6.72589 28.3471L4.09699 28.4261L4.01288 25.797L6.64191 25.7181L6.72589 28.3471ZM45.3089 3.38701C45.5966 3.37884 45.8803 3.45619 46.1241 3.60918C46.3679 3.76216 46.561 3.98401 46.6788 4.24663C46.7966 4.50925 46.8338 4.80082 46.7859 5.08464C46.7381 5.36846 46.6072 5.63179 46.4097 5.84123C46.2123 6.05068 45.9572 6.19687 45.6767 6.2614C45.3962 6.32594 45.1029 6.30589 44.8338 6.20378C44.5647 6.10168 44.3318 5.92215 44.1647 5.68779C43.9976 5.45343 43.9038 5.17471 43.895 4.88701C43.8896 4.69553 43.9221 4.50493 43.9908 4.3261C44.0594 4.14726 44.1629 3.98373 44.295 3.84502C44.56 3.56557 44.924 3.40114 45.3089 3.38701ZM5.02594 7.52507C4.73823 7.53324 4.45456 7.45589 4.21076 7.3029C3.96695 7.14992 3.77399 6.9282 3.65619 6.66558C3.53839 6.40295 3.50101 6.11126 3.54889 5.82744C3.59677 5.54362 3.72768 5.28029 3.92511 5.07085C4.12255 4.86141 4.37764 4.71522 4.65814 4.65068C4.93865 4.58615 5.23205 4.6062 5.50116 4.7083C5.77027 4.8104 6.00301 4.99005 6.17011 5.22441C6.3372 5.45877 6.43107 5.73738 6.43988 6.02507C6.44575 6.21659 6.41386 6.40733 6.34589 6.58647C6.27791 6.76562 6.1752 6.92959 6.04376 7.06902C5.91233 7.20844 5.75473 7.32068 5.5799 7.3991C5.40507 7.47751 5.2165 7.52062 5.02496 7.52605L5.02594 7.52507ZM23.899 6.80608L23.8149 4.17705L26.4439 4.09807L26.4859 5.40508L26.5279 6.71208L23.899 6.80608ZM44.905 27.194L44.821 24.565L47.4499 24.4871L47.534 27.116L44.905 27.194Z" fill="#40975F"/>
</svg>

<svg width="51" height="32" fill="none" xmlns="http://www.w3.org/2000/svg"><path d="m50.479 27.589-.12-3.735a2.37 2.37 0 0 0-2.442-2.3l-.507.015a21.282 21.282 0 0 0-6.164-10.686l-.032-.03a21.362 21.362 0 0 0-6.49-4.206l6.55-.2a4.4 4.4 0 0 0 8.5-1.732 4.415 4.415 0 0 0-2.84-3.988A4.351 4.351 0 0 0 45.237.45a4.4 4.4 0 0 0-4.058 3.045l-11.791.353-.013-.4a2.369 2.369 0 0 0-2.443-2.3l-3.774.105a2.357 2.357 0 0 0-2.292 2.438l.013.4-11.791.354a4.4 4.4 0 0 0-8.5 1.732A4.4 4.4 0 0 0 9.174 7.39l6.549-.2A21.45 21.45 0 0 0 4.011 22.842l-.63.019a2.377 2.377 0 0 0-2.3 2.446l.119 3.75a2.368 2.368 0 0 0 2.443 2.3l3.751-.112a2.378 2.378 0 0 0 2.3-2.446l-.12-3.751a2.366 2.366 0 0 0-2.442-2.3h-.108A18.527 18.527 0 0 1 21.231 8.382a2.367 2.367 0 0 0 2.215 1.35l3.751-.112a2.37 2.37 0 0 0 2.122-1.48 18.6 18.6 0 0 1 15.093 13.488l-.231.007a2.378 2.378 0 0 0-2.3 2.446l.119 3.75a2.369 2.369 0 0 0 2.443 2.3l3.75-.112a2.354 2.354 0 0 0 2.286-2.43Zm-43.753.758-2.629.08-.084-2.63 2.629-.079.084 2.63Zm38.583-24.96a1.456 1.456 0 1 1-1.318.94 1.472 1.472 0 0 1 1.318-.94ZM5.026 7.525a1.456 1.456 0 1 1-.08-2.913 1.456 1.456 0 0 1 .079 2.914Zm18.873-.719-.084-2.629 2.629-.079.042 1.307.042 1.307-2.629.094Zm21.006 20.388-.084-2.629 2.629-.078.084 2.629-2.629.078Z" fill="#40975F"/></svg>
